X:0465
T:Auld Reekie, or Hoble about.
M:6/8
L:1/8
Q:3/8=120
I: :: ::
Z:Jack Campin * www.campin.me.uk * 2009
K:D
A   |F/G/AA d2A|ded   Tc2A| B/c/dB    AFD     |BGE E2
G   |F/G/AA d2A|df/e/d c2A| B/c/dB    AFd     |AFD D2::
f/g/|afd    afd|efd   Tc2A|(G/A/B).G (F/G/A).F|BGE E2
f/g/|afd    afd|efd   Tc2A|(B/c/d)B   AFd     |AFD D2:|
<end>
<start>
